material/.icons/material/elevator-up.svg

<?xml version="1.0" encoding="UTF-8"?><!DOCTYPE svg PUBLIC "-//W3C//DTD SVG 1.1//EN" "http://www.w3.org/Graphics/SVG/1.1/DTD/svg11.dtd"><svg xmlns="http://www.w3.org/2000/svg" xmlns:xlink="http://www.w3.org/1999/xlink" version="1.1" id="mdi-elevator-up" width="24" height="24" viewBox="0 0 24 24"><path d="M7 2L11 6H8V10H6V6H3L7 2M17 2L13 6H16V10H18V6H21L17 2M7 12H17C18.11 12 19 12.9 19 14V20C19 21.11 18.11 22 17 22H7C5.9 22 5 21.11 5 20V14C5 12.9 5.9 12 7 12M7 14V20H17V14H7Z" /></svg>

<svg xmlns="http://www.w3.org/2000/svg" viewBox="0 0 24 24"><path d="M7 2l4 4H8v4H6V6H3l4-4m10 0l-4 4h3v4h2V6h3l-4-4M7 12h10a2 2 0 012 2v6c0 1.11-.89 2-2 2H7a2 2 0 01-2-2v-6c0-1.1.9-2 2-2m0 2v6h10v-6H7z"/></svg>
